X:9
T:The Fairy Queen
C:Turlough O'Carolan (1670 - 1738)
N:Rearrange for whistle by R.S. Doiel, March 10, 2004
M:3/4
L:1/16
K:G
Q:1/4=60
G8 D4 | F8 D4 | G8 D4 | {A}G3F G3A B3A | G6 f2 e2d2 | {c}B8 (ABd2) | e8 Tf4 | g8 {c}B3A |
G8 (G/B/d3) | F8 (F/A/d3) | E6 f2 e2d2 | {c}B8 F4 | {F}E3D (E2F2) (G2E2) | D2B2 TA6 (GA) | (G12 | G8) | z4 ||
(B2A2 B2c2 B2c2) | (B2A2 B2c2) (B2G2) | A8 A4 | A4 B4 d4 | G6~G2 d2G2 | F6~F2 d2F2 | (E2D2 E2F2) (E2D2) | {c}B8 (def2) |
(g2f2 e2d2) B2A2 | G8 (f2g2) | A6 (G2 F2E2) | D8 (G2A2) | B8 E4 | A8 D4 | TG12 | G8 z4 ||
.g4 .g4 .f4 | .e4 .d4 .c4 | (B2d2 g2B2) A2g2 | G8 z4 | G4 G4 D4 | (E4 F4 G4) | (A3B A2G2) (F2E2) | .d2.G2 .B2.d2 .G2.A2 |
[B8G8] z2 B2 | [A8F8] z2 A2 | G4 G4 e2d2 | {c}B8 (g2f2) | (e3de2) (f2g2d2) | ({c}B2A2 G2A2) (B2d2) | {d}e12 | z4 z4 (def2) ||
g4 g4 f4 | e4 d4 c4 | (B2d2 g2B2) (A2g2) | G8 (F2EF) | (G2F2 E2D2 E2F2) | (G2F2 E2F2 G2A2) | [B12G12] | z4 z2 B2c2d2 |
(e2d2 e2f2) (e2f2) | ({a}g2f2 g2a2) (g2f2) | (e2d2 e2f2) (e2d2) | HB8 (g2f2) | (e2d2 e2f2) g3d | (eB3) A8 | G4 (G8 | G12) ||


% from O'Neill's 1850
